Adwaita++-Light/panel/24/battery-full.svg

<svg height="24" width="24" xmlns="http://www.w3.org/2000/svg">
  <path d="m9 4v1h-3v12c0 .55.446 1 1 1h8c.554 0 1-.45 1-1v-12h-3v-1z" fill="#444" transform="translate(1 1)"/>
</svg>

<svg xmlns="http://www.w3.org/2000/svg" width="24" height="24" version="1.1">
 <defs>
  <style id="current-color-scheme" type="text/css">
   .ColorScheme-Text { color:#444444; } .ColorScheme-Highlight { color:#4285f4; }
  </style>
 </defs>
 <g transform="matrix(1,0,0,1,1,1)">
  <path style="fill:currentColor" class="ColorScheme-Text" d="M 9,4 V 5 H 6 V 17 C 6,17.55 6.446,18 7,18 H 15 C 15.554,18 16,17.55 16,17 V 5 H 13 V 4 Z"/>
 </g>
</svg>
